X:1
T: Bonnie Katie
C:
R:Reel
Q: 232
K:D
M:4/4
L:1/8
|:dB|AF dB AB AF|DF AF E2 EB|AF Ad BG Bd|cA Bc dc dB|
AF dB AB AF|DF AF E2 EB|AF Ad BG Bd|cA Bc de fg|
a2 fd fa fd|gf ed cd ef|gf ef gb ag|fg ec de fg|
a2 fd fa fd|gf ed cd ef|gf ef gb ag|fd ec d2:|
